assets/scalability-icon.svg

<svg fill="none" height="41" viewBox="0 0 41 41" width="41" xmlns="http://www.w3.org/2000/svg"><rect fill="#131117" height="40" rx="20" width="40" x=".5" y=".5"/><path d="m20.626 12.3595 2.73 1.0342-2.8275 1.0864-2.8275-1.0864 2.73-1.0342c.0627-.0244.1323-.0244.1985 0zm-5.3903 1.5286v3.907c-.0453.0139-.0905.0278-.1358.0452l-3.3429 1.2675c-.7556.2856-1.257 1.0133-1.257 1.8212v4.1507c0 .773.4562 1.4729 1.1665 1.7863l3.3429 1.4695c.5014.2193 1.069.2193 1.5704 0l3.9487-1.7376 3.9522 1.7376c.5015.2193 1.069.2193 1.5705 0l3.3428-1.4695c.7069-.3099 1.1665-1.0133 1.1665-1.7863v-4.1507c0-.8113-.5014-1.5356-1.257-1.8246l-3.3429-1.2675c-.0452-.0174-.0905-.0314-.1358-.0453v-3.9035c0-.8113-.5014-1.5356-1.257-1.8246l-3.3429-1.2675c-.4457-.1671-.9367-.1671-1.3824 0l-3.3428 1.2675c-.7626.289-1.264 1.0168-1.264 1.8246zm8.9142 4.1124-2.8692 1.0864v-3.106l2.8692-1.1004zm-8.2596 1.4033 2.73 1.0342-2.8275 1.083-2.8275-1.083 2.73-1.0342c.0627-.0244.1323-.0244.1985 0zm.6547 7.1175v-3.4996l2.8692-1.1003v3.3394zm8.6217-7.1175c.0627-.0244.1323-.0244.1985 0l2.73 1.0342-2.831 1.083-2.8275-1.083zm3.5518 5.9301-2.7022 1.1874v-3.4996l2.8693-1.1003v3.1583c0 .1114-.0661.2089-.1671.2542z" fill="#fff"/></svg>

<svg width="41" height="41" viewBox="0 0 41 41" fill="none" xmlns="http://www.w3.org/2000/svg">
<rect x="0.5" y="0.5" width="40" height="40" rx="20" fill="#131117"/>
<path d="M20.626 12.3595L23.356 13.3937L20.5285 14.4801L17.701 13.3937L20.431 12.3595C20.4937 12.3351 20.5633 12.3351 20.6295 12.3595H20.626ZM15.2357 13.8881V17.7951C15.1904 17.809 15.1452 17.8229 15.0999 17.8403L11.757 19.1078C11.0014 19.3934 10.5 20.1211 10.5 20.929V25.0797C10.5 25.8527 10.9562 26.5526 11.6665 26.866L15.0094 28.3355C15.5108 28.5548 16.0784 28.5548 16.5798 28.3355L20.5285 26.5979L24.4807 28.3355C24.9822 28.5548 25.5497 28.5548 26.0512 28.3355L29.394 26.866C30.1009 26.5561 30.5605 25.8527 30.5605 25.0797V20.929C30.5605 20.1177 30.0591 19.3934 29.3035 19.1044L25.9606 17.8369C25.9154 17.8195 25.8701 17.8055 25.8248 17.7916V13.8881C25.8248 13.0768 25.3234 12.3525 24.5678 12.0635L21.2249 10.796C20.7792 10.6289 20.2882 10.6289 19.8425 10.796L16.4997 12.0635C15.7371 12.3525 15.2357 13.0803 15.2357 13.8881ZM24.1499 18.0005L21.2807 19.0869V15.9809L24.1499 14.8805V18.0005ZM15.8903 19.4038L18.6203 20.438L15.7928 21.521L12.9653 20.438L15.6953 19.4038C15.758 19.3794 15.8276 19.3794 15.8938 19.4038H15.8903ZM16.545 26.5213V23.0217L19.4142 21.9214V25.2608L16.545 26.5213ZM25.1667 19.4038C25.2294 19.3794 25.299 19.3794 25.3652 19.4038L28.0952 20.438L25.2642 21.521L22.4367 20.438L25.1667 19.4038ZM28.7185 25.3339L26.0163 26.5213V23.0217L28.8856 21.9214V25.0797C28.8856 25.1911 28.8195 25.2886 28.7185 25.3339Z" fill="white"/>
</svg>
